Newaita-dark/apps/scalable/preferences-desktop-remote-desktop.svg

<?xml version="1.0" encoding="UTF-8"?>
<svg xmlns="http://www.w3.org/2000/svg" xmlns:xlink="http://www.w3.org/1999/xlink" width="512pt" height="512pt" viewBox="0 0 512 512" version="1.1">
<defs>
<linearGradient id="linear0" gradientUnits="userSpaceOnUse" x1="254" y1="233.5" x2="254" y2="254.666672" gradientTransform="matrix(1.000095,0,0,1.000095,-0.000061041,215.020531)">
<stop offset="0" style="stop-color:rgb(0%,0%,0%);stop-opacity:0.27451;"/>
<stop offset="1" style="stop-color:rgb(0%,0%,0%);stop-opacity:0;"/>
</linearGradient>
<radialGradient id="radial0" gradientUnits="userSpaceOnUse" cx="450.908936" cy="189.579361" fx="450.908936" fy="189.579361" r="21.166656" gradientTransform="matrix(0.00000278673,-1.250119,-2.250215,-0.00000162462,855.259056,1017.525291)">
<stop offset="0" style="stop-color:rgb(0%,0%,0%);stop-opacity:0.313725;"/>
<stop offset="0.222222" style="stop-color:rgb(0%,0%,0%);stop-opacity:0.27451;"/>
<stop offset="1" style="stop-color:rgb(0%,0%,0%);stop-opacity:0;"/>
</radialGradient>
<radialGradient id="radial1" gradientUnits="userSpaceOnUse" cx="450.908936" cy="189.579361" fx="450.908936" fy="189.579361" r="21.166656" gradientTransform="matrix(-0.00000278673,1.250119,2.250215,0.00000162462,-347.210583,-120.439692)">
<stop offset="0" style="stop-color:rgb(0%,0%,0%);stop-opacity:0.313725;"/>
<stop offset="0.222222" style="stop-color:rgb(0%,0%,0%);stop-opacity:0.27451;"/>
<stop offset="1" style="stop-color:rgb(0%,0%,0%);stop-opacity:0;"/>
</radialGradient>
<radialGradient id="radial2" gradientUnits="userSpaceOnUse" cx="450.908936" cy="189.579361" fx="450.908936" fy="189.579361" r="21.166656" gradientTransform="matrix(-0.00000278673,-1.250119,2.250215,-0.00000162462,-347.210583,1017.525291)">
<stop offset="0" style="stop-color:rgb(0%,0%,0%);stop-opacity:0.313725;"/>
<stop offset="0.222222" style="stop-color:rgb(0%,0%,0%);stop-opacity:0.27451;"/>
<stop offset="1" style="stop-color:rgb(0%,0%,0%);stop-opacity:0;"/>
</radialGradient>
<radialGradient id="radial3" gradientUnits="userSpaceOnUse" cx="450.908936" cy="189.579361" fx="450.908936" fy="189.579361" r="21.166656" gradientTransform="matrix(0.00000278673,1.250119,-2.250215,0.00000162462,855.259026,-120.4397)">
<stop offset="0" style="stop-color:rgb(0%,0%,0%);stop-opacity:0.313725;"/>
<stop offset="0.222222" style="stop-color:rgb(0%,0%,0%);stop-opacity:0.27451;"/>
<stop offset="1" style="stop-color:rgb(0%,0%,0%);stop-opacity:0;"/>
</radialGradient>
<linearGradient id="linear1" gradientUnits="userSpaceOnUse" x1="306.916656" y1="-25.791676" x2="305.954559" y2="-135.329163" gradientTransform="matrix(1.205595,0,0,3.478593,-93.664209,538.261571)">
<stop offset="0" style="stop-color:rgb(36.078431%,41.960784%,75.294118%);stop-opacity:1;"/>
<stop offset="1" style="stop-color:rgb(47.45098%,52.54902%,79.607843%);stop-opacity:1;"/>
</linearGradient>
<linearGradient id="linear2" gradientUnits="userSpaceOnUse" x1="1120" y1="1695.118164" x2="1120" y2="255.118118" gradientTransform="matrix(0.264609,0,0,0.264609,0,0.218862)">
<stop offset="0" style="stop-color:rgb(69.019608%,74.509804%,77.254902%);stop-opacity:1;"/>
<stop offset="1" style="stop-color:rgb(81.176471%,84.705882%,86.27451%);stop-opacity:1;"/>
</linearGradient>
<linearGradient id="linear3" gradientUnits="userSpaceOnUse" x1="444.5" y1="185.875" x2="444.5" y2="148.833328" gradientTransform="matrix(0.5,0,0,0.571428,-105.833473,106.337929)">
<stop offset="0" style="stop-color:rgb(47.058824%,56.470588%,61.176471%);stop-opacity:1;"/>
<stop offset="1" style="stop-color:rgb(37.647059%,49.019608%,54.509804%);stop-opacity:1;"/>
</linearGradient>
<linearGradient id="linear4" gradientUnits="userSpaceOnUse" x1="444.5" y1="185.875" x2="444.5" y2="148.833328" gradientTransform="matrix(0.5,0,0,0.571428,-63.500114,106.337929)">
<stop offset="0" style="stop-color:rgb(47.058824%,56.470588%,61.176471%);stop-opacity:1;"/>
<stop offset="1" style="stop-color:rgb(37.647059%,49.019608%,54.509804%);stop-opacity:1;"/>
</linearGradient>
<linearGradient id="linear5" gradientUnits="userSpaceOnUse" x1="444.5" y1="185.875" x2="444.5" y2="148.833328" gradientTransform="matrix(0.5,0,0,0.571428,-21.166803,106.337929)">
<stop offset="0" style="stop-color:rgb(47.058824%,56.470588%,61.176471%);stop-opacity:1;"/>
<stop offset="1" style="stop-color:rgb(37.647059%,49.019608%,54.509804%);stop-opacity:1;"/>
</linearGradient>
<linearGradient id="linear6" gradientUnits="userSpaceOnUse" x1="444.5" y1="185.875" x2="444.5" y2="148.833328" gradientTransform="matrix(0.5,0,0,0.571428,169.333206,106.337929)">
<stop offset="0" style="stop-color:rgb(47.058824%,56.470588%,61.176471%);stop-opacity:1;"/>
<stop offset="1" style="stop-color:rgb(37.647059%,49.019608%,54.509804%);stop-opacity:1;"/>
</linearGradient>
<linearGradient id="linear7" gradientUnits="userSpaceOnUse" x1="254" y1="233.5" x2="254" y2="-147.5" gradientTransform="matrix(0.514286,0,0,0.514286,123.371391,1.079808)">
<stop offset="0" style="stop-color:rgb(69.019608%,74.509804%,77.254902%);stop-opacity:1;"/>
<stop offset="1" style="stop-color:rgb(81.176471%,84.705882%,86.27451%);stop-opacity:1;"/>
</linearGradient>
</defs>
<g id="surface1">
<path style=" stroke:none;fill-rule:nonzero;fill:url(#linear0);" d="M 74.089844 448.542969 L 433.957031 448.542969 L 433.957031 469.710938 L 74.089844 469.710938 Z M 74.089844 448.542969 "/>
<path style=" stroke:none;fill-rule:nonzero;fill:url(#radial0);" d="M 433.957031 448.542969 L 476.296875 448.542969 L 476.296875 427.375 L 433.957031 427.375 Z M 433.957031 448.542969 "/>
<path style=" stroke:none;fill-rule:nonzero;fill:url(#radial1);" d="M 74.089844 448.542969 L 31.753906 448.542969 L 31.753906 469.710938 L 74.089844 469.710938 Z M 74.089844 448.542969 "/>
<path style=" stroke:none;fill-rule:nonzero;fill:url(#radial2);" d="M 74.089844 448.542969 L 31.753906 448.542969 L 31.753906 427.375 L 74.089844 427.375 Z M 74.089844 448.542969 "/>
<path style=" stroke:none;fill-rule:nonzero;fill:url(#radial3);" d="M 433.957031 448.542969 L 476.296875 448.542969 L 476.296875 469.710938 L 433.957031 469.710938 Z M 433.957031 448.542969 "/>
<path style=" stroke:none;fill-rule:nonzero;fill:url(#linear1);" d="M 52.921875 67.507812 L 455.125 67.507812 C 466.816406 67.507812 476.296875 76.984375 476.296875 88.675781 L 476.296875 427.375 C 476.296875 439.066406 466.816406 448.542969 455.125 448.542969 L 52.921875 448.542969 C 41.230469 448.542969 31.753906 439.066406 31.753906 427.375 L 31.753906 88.675781 C 31.753906 76.984375 41.230469 67.507812 52.921875 67.507812 Z M 52.921875 67.507812 "/>
<path style=" stroke:none;fill-rule:nonzero;fill:rgb(0%,0%,0%);fill-opacity:0.235294;" d="M 52.921875 448.75 C 41.195312 448.75 31.753906 439.308594 31.753906 427.582031 L 31.753906 422.082031 C 31.753906 433.808594 41.195312 443.25 52.921875 443.25 L 455.125 443.25 C 466.855469 443.25 476.296875 433.808594 476.296875 422.082031 L 476.296875 427.582031 C 476.296875 439.308594 466.855469 448.75 455.125 448.75 Z M 52.921875 448.75 "/>
<path style=" stroke:none;fill-rule:nonzero;fill:url(#linear2);" d="M 105.84375 385.253906 C 94.117188 385.253906 84.675781 394.695312 84.675781 406.425781 L 84.675781 438.175781 C 84.675781 444.039062 89.394531 448.761719 95.257812 448.761719 L 412.789062 448.761719 C 418.652344 448.761719 423.375 444.039062 423.375 438.175781 L 423.375 406.425781 C 423.375 394.695312 413.933594 385.253906 402.203125 385.253906 Z M 105.84375 385.253906 "/>
<path style="fill-rule:nonzero;fill:url(#linear3);stroke-width:3;stroke-linecap:round;stroke-linejoin:miter;stroke:rgb(12.941177%,12.941177%,12.941177%);stroke-opacity:1;stroke-miterlimit:4;" d="M 116.41857 191.386973 C 122.261762 191.386973 126.999591 196.124802 126.999591 201.967994 C 126.999591 207.815092 122.261762 212.552921 116.41857 212.552921 C 110.571472 212.552921 105.833643 207.815092 105.833643 201.967994 C 105.833643 196.124802 110.571472 191.386973 116.41857 191.386973 Z M 116.41857 191.386973 " transform="matrix(1.000095,0,0,1.000095,0,215.020531)"/>
<path style="fill-rule:nonzero;fill:url(#linear4);stroke-width:3;stroke-linecap:round;stroke-linejoin:miter;stroke:rgb(12.941177%,12.941177%,12.941177%);stroke-opacity:1;stroke-miterlimit:4;" d="M 158.750465 191.386973 C 164.593657 191.386973 169.331486 196.124802 169.331486 201.967994 C 169.331486 207.815092 164.593657 212.552921 158.750465 212.552921 C 152.903367 212.552921 148.165538 207.815092 148.165538 201.967994 C 148.165538 196.124802 152.903367 191.386973 158.750465 191.386973 Z M 158.750465 191.386973 " transform="matrix(1.000095,0,0,1.000095,0,215.020531)"/>
<path style="fill-rule:nonzero;fill:url(#linear5);stroke-width:3;stroke-linecap:round;stroke-linejoin:miter;stroke:rgb(12.941177%,12.941177%,12.941177%);stroke-opacity:1;stroke-miterlimit:4;" d="M 201.08236 191.386973 C 206.929458 191.386973 211.667287 196.124802 211.667287 201.967994 C 211.667287 207.815092 206.929458 212.552921 201.08236 212.552921 C 195.239168 212.552921 190.501339 207.815092 190.501339 201.967994 C 190.501339 196.124802 195.239168 191.386973 201.08236 191.386973 Z M 201.08236 191.386973 " transform="matrix(1.000095,0,0,1.000095,0,215.020531)"/>
<path style="fill-rule:nonzero;fill:url(#linear6);stroke-width:3;stroke-linecap:round;stroke-linejoin:miter;stroke:rgb(12.941177%,12.941177%,12.941177%);stroke-opacity:1;stroke-miterlimit:4;" d="M 391.583699 191.386973 C 397.426891 191.386973 402.16472 196.124802 402.16472 201.967994 C 402.16472 207.815092 397.426891 212.552921 391.583699 212.552921 C 385.736601 212.552921 380.998773 207.815092 380.998773 201.967994 C 380.998773 196.124802 385.736601 191.386973 391.583699 191.386973 Z M 391.583699 191.386973 " transform="matrix(1.000095,0,0,1.000095,0,215.020531)"/>
<path style=" stroke:none;fill-rule:nonzero;fill:rgb(100%,100%,100%);fill-opacity:0.588235;" d="M 105.84375 385.253906 C 94.117188 385.253906 84.675781 394.695312 84.675781 406.425781 L 84.675781 411.496094 C 84.675781 399.769531 94.117188 390.328125 105.84375 390.328125 L 402.203125 390.328125 C 413.933594 390.328125 423.375 399.769531 423.375 411.496094 L 423.375 406.425781 C 423.375 394.695312 413.933594 385.253906 402.203125 385.253906 Z M 105.84375 385.253906 "/>
<path style=" stroke:none;fill-rule:nonzero;fill:rgb(0%,0%,0%);fill-opacity:0.235294;" d="M 84.675781 432.886719 L 84.675781 438.175781 C 84.675781 444.039062 89.394531 448.761719 95.257812 448.761719 L 412.789062 448.761719 C 418.652344 448.761719 423.375 444.039062 423.375 438.175781 L 423.375 432.886719 C 423.375 438.75 418.652344 443.46875 412.789062 443.46875 L 95.257812 443.46875 C 89.394531 443.46875 84.675781 438.75 84.675781 432.886719 Z M 84.675781 432.886719 "/>
<path style=" stroke:none;fill-rule:nonzero;fill:rgb(12.941177%,12.941177%,12.941177%);fill-opacity:1;" d="M 105.84375 383.753906 C 93.3125 383.753906 83.175781 393.890625 83.175781 406.425781 L 83.175781 438.175781 C 83.175781 444.847656 88.589844 450.261719 95.257812 450.261719 L 412.789062 450.261719 C 419.457031 450.261719 424.875 444.847656 424.875 438.175781 L 424.875 406.425781 C 424.875 393.890625 414.738281 383.753906 402.203125 383.753906 Z M 105.84375 386.753906 L 402.203125 386.753906 C 413.128906 386.753906 421.875 395.5 421.875 406.425781 L 421.875 438.175781 C 421.875 443.234375 417.847656 447.261719 412.789062 447.261719 L 95.257812 447.261719 C 90.199219 447.261719 86.175781 443.234375 86.175781 438.175781 L 86.175781 406.425781 C 86.175781 395.5 94.921875 386.753906 105.84375 386.753906 Z M 105.84375 386.753906 "/>
<path style=" stroke:none;fill-rule:nonzero;fill:rgb(100%,100%,100%);fill-opacity:0.392157;" d="M 52.921875 68.730469 C 41.195312 68.730469 31.753906 78.167969 31.753906 89.898438 L 31.753906 95.398438 C 31.753906 83.671875 41.195312 74.230469 52.921875 74.230469 L 455.125 74.230469 C 466.855469 74.230469 476.296875 83.671875 476.296875 95.398438 L 476.296875 89.898438 C 476.296875 78.167969 466.855469 68.730469 455.125 68.730469 Z M 52.921875 68.730469 "/>
<path style=" stroke:none;fill-rule:nonzero;fill:rgb(12.941177%,12.941177%,12.941177%);fill-opacity:1;" d="M 52.921875 66.007812 C 40.386719 66.007812 30.253906 76.140625 30.253906 88.675781 L 30.253906 427.375 C 30.253906 439.90625 40.386719 450.042969 52.921875 450.042969 L 455.128906 450.042969 C 467.660156 450.042969 477.796875 439.90625 477.796875 427.375 L 477.796875 88.675781 C 477.796875 76.140625 467.660156 66.007812 455.128906 66.007812 Z M 52.921875 69.007812 L 455.128906 69.007812 C 466.050781 69.007812 474.796875 77.753906 474.796875 88.675781 L 474.796875 427.375 C 474.796875 438.296875 466.050781 447.042969 455.128906 447.042969 L 52.921875 447.042969 C 42 447.042969 33.253906 438.296875 33.253906 427.375 L 33.253906 88.675781 C 33.253906 77.753906 42 69.007812 52.921875 69.007812 Z M 52.921875 69.007812 "/>
<path style="fill-rule:nonzero;fill:url(#linear7);stroke-width:3;stroke-linecap:round;stroke-linejoin:miter;stroke:rgb(12.941177%,12.941177%,12.941177%);stroke-opacity:1;stroke-miterlimit:4;" d="M 253.999182 -73.415864 C 210.526771 -73.415864 170.651672 -58.573532 139.135151 -33.665754 L 157.70369 -6.656615 C 183.916031 -27.994421 217.412832 -40.758827 253.999182 -40.758827 C 290.589438 -40.758827 324.082333 -27.994421 350.298579 -6.656615 L 368.863213 -33.665754 C 337.346691 -58.573532 297.471593 -73.415864 253.999182 -73.415864 Z M 253.999182 -8.101789 C 224.294987 -8.101789 197.184295 2.608126 176.29957 20.391584 L 194.954039 47.525711 C 210.452559 33.249731 231.173237 24.555249 253.999182 24.555249 C 276.829033 24.555249 297.54971 33.249731 313.04823 47.525711 L 331.702699 20.391584 C 310.817975 2.608126 283.707282 -8.101789 253.999182 -8.101789 Z M 253.999182 57.212286 C 238.031957 57.212286 223.713011 64.02023 213.77646 74.902003 L 242.773691 117.081569 C 248.558295 122.526362 259.443974 122.526362 265.224672 117.081569 L 294.225809 74.902003 C 284.285352 64.02023 269.966407 57.212286 253.999182 57.212286 Z M 253.999182 57.212286 " transform="matrix(1.000095,0,0,1.000095,0,215.020531)"/>
</g>
</svg>

<svg xmlns="http://www.w3.org/2000/svg" width="512pt" height="512pt" viewBox="0 0 512 512"><defs><linearGradient id="a" gradientUnits="userSpaceOnUse" x1="254" y1="233.5" x2="254" y2="254.667" gradientTransform="matrix(1.0001 0 0 1.0001 0 215.02)"><stop offset="0" stop-opacity=".275"/><stop offset="1" stop-opacity="0"/></linearGradient><radialGradient id="b" gradientUnits="userSpaceOnUse" cx="450.909" cy="189.579" fx="450.909" fy="189.579" r="21.167" gradientTransform="matrix(0 -1.25012 -2.25021 0 855.26 1017.525)"><stop offset="0" stop-opacity=".314"/><stop offset=".222" stop-opacity=".275"/><stop offset="1" stop-opacity="0"/></radialGradient><radialGradient id="c" gradientUnits="userSpaceOnUse" cx="450.909" cy="189.579" fx="450.909" fy="189.579" r="21.167" gradientTransform="matrix(0 1.25012 2.25021 0 -347.21 -120.44)"><stop offset="0" stop-opacity=".314"/><stop offset=".222" stop-opacity=".275"/><stop offset="1" stop-opacity="0"/></radialGradient><radialGradient id="d" gradientUnits="userSpaceOnUse" cx="450.909" cy="189.579" fx="450.909" fy="189.579" r="21.167" gradientTransform="matrix(0 -1.25012 2.25021 0 -347.21 1017.525)"><stop offset="0" stop-opacity=".314"/><stop offset=".222" stop-opacity=".275"/><stop offset="1" stop-opacity="0"/></radialGradient><radialGradient id="e" gradientUnits="userSpaceOnUse" cx="450.909" cy="189.579" fx="450.909" fy="189.579" r="21.167" gradientTransform="matrix(0 1.25012 -2.25021 0 855.259 -120.44)"><stop offset="0" stop-opacity=".314"/><stop offset=".222" stop-opacity=".275"/><stop offset="1" stop-opacity="0"/></radialGradient><linearGradient id="f" gradientUnits="userSpaceOnUse" x1="306.917" y1="-25.792" x2="305.955" y2="-135.329" gradientTransform="matrix(1.2056 0 0 3.4786 -93.664 538.262)"><stop offset="0" stop-color="#5c6bc0"/><stop offset="1" stop-color="#7986cb"/></linearGradient><linearGradient id="g" gradientUnits="userSpaceOnUse" x1="1120" y1="1695.118" x2="1120" y2="255.118" gradientTransform="matrix(.2646 0 0 .2646 0 .219)"><stop offset="0" stop-color="#b0bec5"/><stop offset="1" stop-color="#cfd8dc"/></linearGradient><linearGradient id="h" gradientUnits="userSpaceOnUse" x1="444.5" y1="185.875" x2="444.5" y2="148.833" gradientTransform="matrix(.5 0 0 .57143 -105.833 106.338)"><stop offset="0" stop-color="#78909c"/><stop offset="1" stop-color="#607d8b"/></linearGradient><linearGradient id="i" gradientUnits="userSpaceOnUse" x1="444.5" y1="185.875" x2="444.5" y2="148.833" gradientTransform="matrix(.5 0 0 .57143 -63.5 106.338)"><stop offset="0" stop-color="#78909c"/><stop offset="1" stop-color="#607d8b"/></linearGradient><linearGradient id="j" gradientUnits="userSpaceOnUse" x1="444.5" y1="185.875" x2="444.5" y2="148.833" gradientTransform="matrix(.5 0 0 .57143 -21.167 106.338)"><stop offset="0" stop-color="#78909c"/><stop offset="1" stop-color="#607d8b"/></linearGradient><linearGradient id="k" gradientUnits="userSpaceOnUse" x1="444.5" y1="185.875" x2="444.5" y2="148.833" gradientTransform="matrix(.5 0 0 .57143 169.333 106.338)"><stop offset="0" stop-color="#78909c"/><stop offset="1" stop-color="#607d8b"/></linearGradient><linearGradient id="l" gradientUnits="userSpaceOnUse" x1="254" y1="233.5" x2="254" y2="-147.5" gradientTransform="matrix(.51429 0 0 .51429 123.371 1.08)"><stop offset="0" stop-color="#b0bec5"/><stop offset="1" stop-color="#cfd8dc"/></linearGradient></defs><path d="M74.09 448.543h359.867v21.168H74.09zm0 0" fill="url(#a)"/><path d="M433.957 448.543h42.34v-21.168h-42.34zm0 0" fill="url(#b)"/><path d="M74.09 448.543H31.754v21.168H74.09zm0 0" fill="url(#c)"/><path d="M74.09 448.543H31.754v-21.168H74.09zm0 0" fill="url(#d)"/><path d="M433.957 448.543h42.34v21.168h-42.34zm0 0" fill="url(#e)"/><path d="M52.922 67.508h402.203c11.691 0 21.172 9.476 21.172 21.168v338.699c0 11.691-9.48 21.168-21.172 21.168H52.922c-11.692 0-21.168-9.477-21.168-21.168v-338.7c0-11.69 9.476-21.167 21.168-21.167zm0 0" fill="url(#f)"/><path d="M52.922 448.75a21.122 21.122 0 0 1-21.168-21.168v-5.5a21.122 21.122 0 0 0 21.168 21.168h402.203a21.123 21.123 0 0 0 21.172-21.168v5.5a21.123 21.123 0 0 1-21.172 21.168zm0 0" fill-opacity=".235"/><path d="M105.844 385.254a21.123 21.123 0 0 0-21.168 21.172v31.75a10.561 10.561 0 0 0 10.582 10.586h317.531a10.564 10.564 0 0 0 10.586-10.586v-31.75a21.124 21.124 0 0 0-21.172-21.172zm0 0" fill="url(#g)"/><path d="M116.419 191.387c5.843 0 10.58 4.738 10.58 10.581 0 5.847-4.737 10.585-10.58 10.585-5.848 0-10.585-4.738-10.585-10.585 0-5.843 4.737-10.581 10.585-10.581zm0 0" transform="matrix(1.0001 0 0 1.0001 0 215.02)" fill="url(#h)" stroke-width="3" stroke-linecap="round" stroke="#212121"/><path d="M158.75 191.387c5.844 0 10.581 4.738 10.581 10.581 0 5.847-4.737 10.585-10.58 10.585-5.848 0-10.585-4.738-10.585-10.585 0-5.843 4.737-10.581 10.584-10.581zm0 0" transform="matrix(1.0001 0 0 1.0001 0 215.02)" fill="url(#i)" stroke-width="3" stroke-linecap="round" stroke="#212121"/><path d="M201.082 191.387c5.847 0 10.585 4.738 10.585 10.581 0 5.847-4.738 10.585-10.585 10.585-5.843 0-10.58-4.738-10.58-10.585 0-5.843 4.737-10.581 10.58-10.581zm0 0" transform="matrix(1.0001 0 0 1.0001 0 215.02)" fill="url(#j)" stroke-width="3" stroke-linecap="round" stroke="#212121"/><path d="M391.584 191.387c5.843 0 10.58 4.738 10.58 10.581 0 5.847-4.737 10.585-10.58 10.585-5.847 0-10.585-4.738-10.585-10.585 0-5.843 4.738-10.581 10.585-10.581zm0 0" transform="matrix(1.0001 0 0 1.0001 0 215.02)" fill="url(#k)" stroke-width="3" stroke-linecap="round" stroke="#212121"/><path d="M105.844 385.254a21.123 21.123 0 0 0-21.168 21.172v5.07a21.122 21.122 0 0 1 21.168-21.168h296.36a21.123 21.123 0 0 1 21.171 21.168v-5.07a21.124 21.124 0 0 0-21.172-21.172zm0 0" fill="#fff" fill-opacity=".588"/><path d="M84.676 432.887v5.289a10.561 10.561 0 0 0 10.582 10.586h317.531a10.564 10.564 0 0 0 10.586-10.586v-5.29a10.561 10.561 0 0 1-10.586 10.583H95.258a10.558 10.558 0 0 1-10.582-10.582zm0 0" fill-opacity=".235"/><path d="M105.844 383.754c-12.531 0-22.668 10.137-22.668 22.672v31.75c0 6.672 5.414 12.086 12.082 12.086h317.531c6.668 0 12.086-5.414 12.086-12.086v-31.75c0-12.535-10.137-22.672-22.672-22.672zm0 3h296.36a19.594 19.594 0 0 1 19.671 19.672v31.75a9.034 9.034 0 0 1-9.086 9.086H95.258a9.031 9.031 0 0 1-9.082-9.086v-31.75a19.593 19.593 0 0 1 19.668-19.672zm0 0" fill="#212121"/><path d="M52.922 68.73a21.12 21.12 0 0 0-21.168 21.168v5.5A21.122 21.122 0 0 1 52.922 74.23h402.203a21.123 21.123 0 0 1 21.172 21.168v-5.5a21.12 21.12 0 0 0-21.172-21.168zm0 0" fill="#fff" fill-opacity=".392"/><path d="M52.922 66.008c-12.535 0-22.668 10.133-22.668 22.668v338.699c0 12.531 10.133 22.668 22.668 22.668h402.207c12.531 0 22.668-10.137 22.668-22.668v-338.7c0-12.534-10.137-22.667-22.668-22.667zm0 3h402.207a19.592 19.592 0 0 1 19.668 19.668v338.699a19.592 19.592 0 0 1-19.668 19.668H52.922a19.592 19.592 0 0 1-19.668-19.668v-338.7a19.592 19.592 0 0 1 19.668-19.667zm0 0" fill="#212121"/><path d="M254-73.416c-43.473 0-83.348 14.842-114.865 39.75l18.569 27.01c26.212-21.338 59.709-34.103 96.295-34.103 36.59 0 70.083 12.765 96.3 34.102l18.564-27.009C337.347-58.574 297.472-73.416 254-73.416zm0 65.314c-29.705 0-56.816 10.71-77.7 28.494l18.654 27.134c15.499-14.276 36.22-22.97 59.045-22.97 22.83 0 43.55 8.694 59.05 22.97l18.654-27.134C310.818 2.608 283.707-8.102 253.999-8.102zm0 65.314c-15.968 0-30.287 6.808-40.224 17.69l28.998 42.18c5.784 5.444 16.67 5.444 22.45 0l29.002-42.18c-9.94-10.882-24.26-17.69-40.227-17.69zm0 0" transform="matrix(1.0001 0 0 1.0001 0 215.02)" fill="url(#l)" stroke-width="3" stroke-linecap="round" stroke="#212121"/></svg>
